;Generated by Cura LulzBot Edition GCodeWriter Version: 3.6.27
;FLAVOR:Marlin
;TIME:1747
;Filament used: 1.08364m
;Layer height: 0.25
;Generated with Cura_SteamEngine 3.6.27-4
M82 ;absolute extrusion mode
;This G-Code has been generated specifically for the LulzBot TAZ 6 with standard extruder
M73 P0 ; clear GLCD progress bar
M75 ; start GLCD timer
G26 ; clear potential 'probe fail' condition
M107 ; disable fans
M420 S0 ; disable previous leveling matrix
G90 ; absolute positioning
M82 ; set extruder to absolute mode
G92 E0 ; set extruder position to 0
M140 S60.0 ; start bed heating up
M109 R140 ; soften filament before homing Z
G28 ; Home all axis
G1 E-30 F100 ; retract filament
M109 R140 ; wait for extruder to reach wiping temp
G1 X-17 Y100 F3000 ; move above wiper pad
G1 Z1 ; push nozzle into wiper
G1 X-19 Y95 F1000 ; slow wipe
G1 X-19 Y90 F1000 ; slow wipe
G1 X-19 Y85 F1000 ; slow wipe
G1 X-17 Y90 F1000 ; slow wipe
G1 X-19 Y80 F1000 ; slow wipe
G1 X-17 Y95 F1000 ; slow wipe
G1 X-17 Y75 F2000 ; fast wipe
G1 X-17 Y65 F2000 ; fast wipe
G1 X-19 Y70 F2000 ; fast wipe
G1 X-17 Y60 F2000 ; fast wipe
G1 X-19 Y55 F2000 ; fast wipe
G1 X-17 Y50 F2000 ; fast wipe
G1 X-19 Y40 F2000 ; fast wipe
G1 X-17 Y45 F2000 ; fast wipe
G1 X-19 Y35 F2000 ; fast wipe
G1 X-17 Y40 F2000 ; fast wipe
G1 X-19 Y70 F2000 ; fast wipe
G1 X-17 Y30 Z2 F2000 ; fast wipe
G1 X-19 Y35 F2000 ; fast wipe
G1 X-17 Y25 F2000 ; fast wipe
G1 X-19 Y30 F2000 ; fast wipe
G1 X-17 Y25 Z1.5 F1000 ; slow wipe
G1 X-19 Y23 F1000 ; slow wipe
G1 Z10 ; raise extruder
M109 R140 ; wait for extruder to reach probe temp
G1 X-10 Y293 F4000 ; move above first probe point
M204 S100 ; set probing acceleration
G29 ; start auto-leveling sequence
M420 S1 ; activate bed level matrix
M425 Z			     ; use measured Z backlash for compensation
M425 Z F0		     ; turn off measured Z backlash compensation. (if activated in the quality settings, this command will automatically be ignored)
M204 S500 ; restore standard acceleration
G1 X0 Y0 Z15 F5000 ; move up off last probe point
G4 S1 ; pause
M400 ; wait for moves to finish
M117 Heating... ; progress indicator message on LCD
M109 R200 ; wait for extruder to reach printing temp
M190 R60.0 ; wait for bed to reach printing temp
G1 Z2 E0 F75 ; prime tiny bit of filament into the nozzle
M117 TAZ 6 Printing... ; progress indicator message on LCD

M221 S100 T0
G92 E0
G1 F600 E-1
;LAYER_COUNT:66
;LAYER:0
M107
G0 F2625 X122.462 Y122.016 Z0.425
;TYPE:SKIRT
G1 F600 E0
G1 F900 X122.68 Y121.801 E0.0102
G1 X123.618 Y120.95 E0.05239
G1 X123.849 Y120.756 E0.06244
G1 X125.557 Y119.44 E0.13426
G1 X125.88 Y119.218 E0.14731
G1 X127.801 Y118.035 E0.22246
G1 X128.11 Y117.864 E0.23423
G1 X129.844 Y117.01 E0.29861
G1 X130.171 Y116.868 E0.31049
G1 X132.061 Y116.151 E0.37782
G1 X132.397 Y116.041 E0.3896
G1 X133.867 Y115.637 E0.44038
G1 X134.151 Y115.571 E0.45009
G1 X136.359 Y115.145 E0.525
G1 X136.635 Y115.102 E0.5343
G1 X137.777 Y114.969 E0.5726
G1 X138.096 Y114.946 E0.58325
G1 X140.354 Y114.877 E0.6585
G1 X140.735 Y114.884 E0.6712
G1 X142.842 Y115.034 E0.74156
G1 X143.198 Y115.077 E0.75351
G1 X145.225 Y115.418 E0.82197
G1 X145.578 Y115.495 E0.83401
G1 X147.543 Y116.024 E0.90179
G1 X147.882 Y116.133 E0.91366
G1 X149.28 Y116.656 E0.96338
G1 X149.544 Y116.766 E0.9729
G1 X151.572 Y117.707 E1.04737
G1 X151.826 Y117.837 E1.05688
G1 X152.91 Y118.444 E1.09826
G1 X153.198 Y118.623 E1.10956
G1 X155.157 Y119.966 E1.18868
G1 X155.462 Y120.199 E1.20146
G1 X157.066 Y121.559 E1.27151
G1 X157.293 Y121.767 E1.28177
G1 X158.074 Y122.548 E1.31856
G1 X158.199 Y122.68 E1.32461
G1 X159.05 Y123.618 E1.3668
G1 X159.244 Y123.849 E1.37685
G1 X160.56 Y125.557 E1.44867
G1 X160.782 Y125.88 E1.46173
G1 X161.965 Y127.801 E1.53688
G1 X162.136 Y128.11 E1.54864
G1 X162.99 Y129.844 E1.61303
G1 X163.132 Y130.17 E1.62487
G1 X163.848 Y132.056 E1.69207
G1 X163.958 Y132.394 E1.70391
G1 X164.363 Y133.869 E1.75486
G1 X164.429 Y134.151 E1.76451
G1 X164.855 Y136.357 E1.83935
G1 X164.898 Y136.635 E1.84872
G1 X165.031 Y137.778 E1.88705
G1 X165.053 Y138.062 E1.89654
G1 X165.133 Y140.068 E1.96341
G1 X165.129 Y140.452 E1.9762
G1 X164.989 Y142.686 E2.05077
G1 X164.947 Y143.053 E2.06307
G1 X164.622 Y145.052 E2.13053
G1 X164.544 Y145.418 E2.143
G1 X163.971 Y147.562 E2.21692
G1 X163.831 Y147.984 E2.23173
G1 X162.827 Y150.499 E2.32194
G1 X162.647 Y150.884 E2.33609
G1 X161.58 Y152.869 E2.41116
G1 X161.401 Y153.168 E2.42277
G1 X160.343 Y154.762 E2.4865
G1 X160.11 Y155.076 E2.49952
G1 X158.635 Y156.862 E2.57668
G1 X158.401 Y157.12 E2.58828
G1 X157.469 Y158.056 E2.63228
G1 X157.334 Y158.186 E2.63852
G1 X156.384 Y159.049 E2.68128
G1 X156.151 Y159.244 E2.6914
G1 X154.443 Y160.56 E2.76322
G1 X154.12 Y160.782 E2.77628
G1 X152.199 Y161.965 E2.85143
G1 X151.89 Y162.136 E2.86319
G1 X150.156 Y162.99 E2.92757
G1 X149.829 Y163.132 E2.93945
G1 X147.939 Y163.849 E3.00678
G1 X147.604 Y163.959 E3.01853
G1 X146.143 Y164.361 E3.069
G1 X145.859 Y164.427 E3.07872
G1 X143.642 Y164.855 E3.15393
G1 X143.365 Y164.898 E3.16327
G1 X142.223 Y165.031 E3.20156
G1 X141.905 Y165.054 E3.21218
G1 X139.648 Y165.124 E3.2874
G1 X139.251 Y165.115 E3.30063
G1 X137 Y164.946 E3.37582
G1 X136.647 Y164.903 E3.38767
G1 X134.713 Y164.571 E3.45303
G1 X134.364 Y164.494 E3.46494
G1 X132.402 Y163.961 E3.53266
G1 X132.04 Y163.843 E3.54534
G1 X129.965 Y163.046 E3.61939
G1 X129.56 Y162.862 E3.6342
G1 X127.156 Y161.594 E3.72474
G1 X126.782 Y161.367 E3.73931
G1 X124.837 Y160.03 E3.81793
G1 X124.535 Y159.8 E3.83058
G1 X122.933 Y158.441 E3.90055
G1 X122.707 Y158.233 E3.91079
G1 X121.926 Y157.452 E3.94758
G1 X121.801 Y157.32 E3.95363
G1 X120.95 Y156.382 E3.99582
G1 X120.756 Y156.151 E4.00587
G1 X119.44 Y154.443 E4.07769
G1 X119.218 Y154.12 E4.09075
G1 X118.035 Y152.199 E4.1659
G1 X117.864 Y151.89 E4.17766
G1 X117.01 Y150.156 E4.24205
G1 X116.868 Y149.828 E4.25395
G1 X116.145 Y147.921 E4.32189
G1 X116.028 Y147.56 E4.33453
G1 X115.455 Y145.415 E4.40848
G1 X115.367 Y144.983 E4.42317
G1 X114.983 Y142.326 E4.51259
G1 X114.947 Y141.939 E4.52554
G1 X114.867 Y139.932 E4.59245
G1 X114.871 Y139.549 E4.60521
G1 X115.011 Y137.314 E4.6798
G1 X115.052 Y136.948 E4.69207
G1 X115.376 Y134.95 E4.75949
G1 X115.469 Y134.53 E4.77382
G1 X116.201 Y131.941 E4.86344
G1 X116.327 Y131.571 E4.87646
G1 X117.07 Y129.709 E4.94324
G1 X117.218 Y129.384 E4.95514
G1 X118.147 Y127.577 E5.02282
G1 X118.338 Y127.248 E5.03549
G1 X119.554 Y125.378 E5.10979
G1 X119.77 Y125.079 E5.12208
G1 X120.71 Y123.904 E5.1722
G1 X120.9 Y123.685 E5.18186
G1 X122.462 Y122.016 E5.25801
G0 F2625 X122.827 Y122.357
G1 F900 X123.016 Y122.171 E5.26684
G1 X123.954 Y121.32 E5.30903
G1 X124.154 Y121.153 E5.31771
G1 X125.862 Y119.837 E5.38953
G1 X126.142 Y119.644 E5.40086
G1 X128.063 Y118.461 E5.47601
G1 X128.331 Y118.312 E5.48622
G1 X130.065 Y117.458 E5.55061
G1 X130.348 Y117.335 E5.56088
G1 X132.238 Y116.618 E5.62822
G1 X132.53 Y116.523 E5.63845
G1 X134 Y116.119 E5.68923
G1 X134.245 Y116.062 E5.69761
G1 X136.453 Y115.636 E5.77251
G1 X136.693 Y115.599 E5.7806
G1 X137.835 Y115.466 E5.8189
G1 X138.112 Y115.446 E5.82815
G1 X140.37 Y115.377 E5.9034
G1 X140.7 Y115.383 E5.9144
G1 X142.807 Y115.533 E5.98476
G1 X143.115 Y115.57 E5.99509
G1 X145.142 Y115.911 E6.06356
G1 X145.448 Y115.978 E6.07399
G1 X147.413 Y116.507 E6.14178
G1 X147.707 Y116.601 E6.15206
G1 X149.105 Y117.124 E6.20178
G1 X149.334 Y117.22 E6.21005
G1 X151.362 Y118.161 E6.28452
G1 X151.582 Y118.273 E6.29275
G1 X152.666 Y118.88 E6.33413
G1 X152.916 Y119.035 E6.34393
G1 X154.875 Y120.378 E6.42305
G1 X155.139 Y120.58 E6.43412
G1 X156.743 Y121.94 E6.50417
G1 X156.939 Y122.121 E6.51306
G1 X157.72 Y122.902 E6.54985
G1 X157.829 Y123.016 E6.5551
G1 X158.68 Y123.954 E6.59729
G1 X158.847 Y124.154 E6.60597
G1 X160.163 Y125.862 E6.67779
G1 X160.356 Y126.142 E6.68912
G1 X161.539 Y128.063 E6.76427
G1 X161.688 Y128.331 E6.77448
G1 X162.542 Y130.065 E6.83887
G1 X162.664 Y130.347 E6.8491
G1 X163.38 Y132.233 E6.9163
G1 X163.476 Y132.526 E6.92657
G1 X163.881 Y134.001 E6.97752
G1 X163.938 Y134.246 E6.9859
G1 X164.364 Y136.452 E7.06074
G1 X164.401 Y136.692 E7.06883
G1 X164.534 Y137.835 E7.10716
G1 X164.553 Y138.081 E7.11538
G1 X164.633 Y140.087 E7.18226
G1 X164.63 Y140.42 E7.19335
G1 X164.49 Y142.654 E7.26791
G1 X164.454 Y142.973 E7.2786
G1 X164.129 Y144.972 E7.34606
G1 X164.061 Y145.289 E7.35686
G1 X163.488 Y147.433 E7.43079
G1 X163.366 Y147.799 E7.44364
G1 X162.362 Y150.314 E7.53384
G1 X162.207 Y150.648 E7.54611
G1 X161.14 Y152.633 E7.62118
G1 X160.985 Y152.891 E7.6312
G1 X159.927 Y154.485 E7.69493
G1 X159.725 Y154.758 E7.70624
G1 X158.25 Y156.544 E7.7834
G1 X158.047 Y156.767 E7.79345
G1 X157.115 Y157.703 E7.83745
G1 X156.997 Y157.816 E7.84289
G1 X156.047 Y158.679 E7.88564
G1 X155.846 Y158.847 E7.89437
G1 X154.138 Y160.163 E7.96619
G1 X153.858 Y160.356 E7.97752
G1 X151.937 Y161.539 E8.05267
G1 X151.669 Y161.688 E8.06288
G1 X149.935 Y162.542 E8.12727
G1 X149.652 Y162.665 E8.13755
G1 X147.762 Y163.382 E8.20488
G1 X147.471 Y163.477 E8.21508
G1 X146.01 Y163.879 E8.26555
G1 X145.764 Y163.936 E8.27396
G1 X143.547 Y164.364 E8.34918
G1 X143.307 Y164.401 E8.35726
G1 X142.165 Y164.534 E8.39556
G1 X141.89 Y164.554 E8.40475
G1 X139.633 Y164.624 E8.47996
G1 X139.289 Y164.617 E8.49143
G1 X137.038 Y164.448 E8.56662
G1 X136.731 Y164.41 E8.57692
G1 X134.797 Y164.078 E8.64229
G1 X134.495 Y164.011 E8.65259
G1 X132.533 Y163.478 E8.72031
G1 X132.22 Y163.376 E8.73128
G1 X130.145 Y162.579 E8.80532
G1 X129.794 Y162.42 E8.81816
G1 X127.39 Y161.152 E8.90869
G1 X127.065 Y160.955 E8.92135
G1 X125.12 Y159.618 E8.99997
G1 X124.859 Y159.418 E9.01093
G1 X123.257 Y158.059 E9.0809
G1 X123.061 Y157.879 E9.08977
G1 X122.28 Y157.098 E9.12656
G1 X122.171 Y156.984 E9.13181
G1 X121.32 Y156.046 E9.174
G1 X121.153 Y155.846 E9.18268
G1 X119.837 Y154.138 E9.2545
G1 X119.644 Y153.858 E9.26583
G1 X118.461 Y151.937 E9.34098
G1 X118.312 Y151.669 E9.35119
G1 X117.458 Y149.935 E9.41558
G1 X117.335 Y149.651 E9.42589
G1 X116.612 Y147.744 E9.49382
G1 X116.511 Y147.431 E9.50478
G1 X115.938 Y145.286 E9.57874
G1 X115.861 Y144.912 E9.59145
G1 X115.477 Y142.255 E9.68088
G1 X115.447 Y141.919 E9.69212
G1 X115.367 Y139.912 E9.75902
G1 X115.37 Y139.58 E9.77008
G1 X115.51 Y137.345 E9.84468
G1 X115.546 Y137.028 E9.85531
G1 X115.87 Y135.03 E9.92273
G1 X115.951 Y134.666 E9.93515
G1 X116.683 Y132.077 E10.02477
G1 X116.791 Y131.756 E10.03605
G1 X117.534 Y129.894 E10.10283
G1 X117.663 Y129.613 E10.11313
G1 X118.592 Y127.806 E10.18081
G1 X118.757 Y127.52 E10.19181
G1 X119.973 Y125.65 E10.26611
G1 X120.16 Y125.392 E10.27673
G1 X121.1 Y124.217 E10.32685
G1 X121.265 Y124.026 E10.33526
G1 X122.827 Y122.357 E10.4114
G1 F600 E9.4114
;MESH:
G0 F2625 X128.899 Y120.936
G0 X129.679 Y122.138
G0 X142.108 Y119.561
G0 X142.118 Y119.462
;TYPE:WALL-INNER
G1 F600 E10.4114
G1 F900 X144.253 Y119.796 E10.48339
G1 X146.341 Y120.349 E10.55534
G1 X148.361 Y121.121 E10.62737
G1 X150.283 Y122.095 E10.69914
G1 X152.148 Y123.302 E10.77314
G1 X153.805 Y124.645 E10.84419
G1 X155.355 Y126.195 E10.91721
G1 X156.703 Y127.859 E10.98854
G1 X157.879 Y129.67 E11.06047
G1 X158.866 Y131.607 E11.13288
G1 X159.636 Y133.614 E11.20449
G1 X160.198 Y135.71 E11.27677
G1 X160.537 Y137.843 E11.34872
G1 X160.649 Y140 E11.42066
G1 X160.537 Y142.157 E11.49261
G1 X160.198 Y144.29 E11.56455
G1 X159.636 Y146.386 E11.63684
G1 X158.866 Y148.393 E11.70844
G1 X157.879 Y150.33 E11.78086
G1 X156.703 Y152.141 E11.85279
G1 X155.355 Y153.805 E11.92412
G1 X153.805 Y155.355 E11.99714
G1 X152.141 Y156.703 E12.06847
G1 X150.33 Y157.879 E12.1404
G1 X148.393 Y158.866 E12.21282
G1 X146.386 Y159.636 E12.28442
G1 X144.29 Y160.198 E12.35671
G1 X142.157 Y160.537 E12.42865
G1 X140 Y160.649 E12.5006
G1 X137.843 Y160.537 E12.57254
G1 X135.71 Y160.198 E12.64449
G1 X133.614 Y159.636 E12.71677
G1 X131.607 Y158.866 E12.78838
G1 X129.67 Y157.879 E12.86079
G1 X127.859 Y156.703 E12.93272
G1 X126.195 Y155.355 E13.00405
G1 X124.645 Y153.805 E13.07707
G1 X123.297 Y152.141 E13.14841
G1 X122.121 Y150.33 E13.22033
G1 X121.134 Y148.393 E13.29275
G1 X120.364 Y146.386 E13.36436
G1 X119.802 Y144.29 E13.43664
G1 X119.463 Y142.157 E13.50858
G1 X119.351 Y140 E13.58053
G1 X119.463 Y137.843 E13.65248
G1 X119.802 Y135.71 E13.72442
G1 X120.364 Y133.614 E13.7967
G1 X121.134 Y131.607 E13.86831
G1 X122.121 Y129.67 E13.94073
G1 X123.297 Y127.859 E14.01265
G1 X124.645 Y126.195 E14.08399
G1 X126.195 Y124.645 E14.157
G1 X127.859 Y123.297 E14.22834
G1 X129.67 Y122.121 E14.30027
G1 X131.607 Y121.134 E14.37268
G1 X133.614 Y120.364 E14.44429
G1 X135.71 Y119.802 E14.51657
G1 X137.843 Y119.463 E14.58851
G1 X140 Y119.351 E14.66046
G1 X142.118 Y119.462 E14.73111
G0 F2625 X142.173 Y118.964
;TYPE:WALL-OUTER
G1 F900 X144.353 Y119.306 E14.80462
G1 X146.495 Y119.873 E14.87842
G1 X148.566 Y120.664 E14.95227
G1 X150.536 Y121.663 E15.02585
G1 X152.437 Y122.893 E15.10127
G1 X154.146 Y124.278 E15.17454
G1 X155.722 Y125.854 E15.24879
G1 X157.107 Y127.563 E15.32206
G1 X158.317 Y129.427 E15.39609
G1 X159.322 Y131.4 E15.46984
G1 X160.112 Y133.457 E15.54324
G1 X160.688 Y135.608 E15.61742
G1 X161.034 Y137.787 E15.69091
G1 X161.149 Y140 E15.76472
G1 X161.034 Y142.213 E15.83854
G1 X160.688 Y144.392 E15.91203
G1 X160.112 Y146.543 E15.98621
G1 X159.322 Y148.6 E16.05961
G1 X158.317 Y150.573 E16.13336
G1 X157.107 Y152.437 E16.20739
G1 X155.722 Y154.146 E16.28066
G1 X154.146 Y155.722 E16.3549
G1 X152.437 Y157.107 E16.42818
G1 X150.573 Y158.317 E16.5022
G1 X148.6 Y159.322 E16.57596
G1 X146.543 Y160.112 E16.64936
G1 X144.392 Y160.688 E16.72353
G1 X142.213 Y161.034 E16.79703
G1 X140 Y161.149 E16.87084
G1 X137.787 Y161.034 E16.94466
G1 X135.608 Y160.688 E17.01815
G1 X133.457 Y160.112 E17.09232
G1 X131.4 Y159.322 E17.16572
G1 X129.427 Y158.317 E17.23948
G1 X127.563 Y157.107 E17.31351
G1 X125.854 Y155.722 E17.38678
G1 X124.278 Y154.146 E17.46102
G1 X122.893 Y152.437 E17.5343
G1 X121.683 Y150.573 E17.60832
G1 X120.678 Y148.6 E17.68208
G1 X119.888 Y146.543 E17.75548
G1 X119.312 Y144.392 E17.82965
G1 X118.966 Y142.213 E17.90315
G1 X118.851 Y140 E17.97696
G1 X118.966 Y137.787 E18.05078
G1 X119.312 Y135.608 E18.12427
G1 X119.888 Y133.457 E18.19844
G1 X120.678 Y131.4 E18.27184
G1 X121.683 Y129.427 E18.3456
G1 X122.893 Y127.563 E18.41962
G1 X124.278 Y125.854 E18.4929
G1 X125.854 Y124.278 E18.56714
G1 X127.563 Y122.893 E18.64042
G1 X129.427 Y121.683 E18.71444
G1 X131.4 Y120.678 E18.7882
G1 X133.457 Y119.888 E18.8616
G1 X135.608 Y119.312 E18.93577
G1 X137.787 Y118.966 E19.00926
G1 X140 Y118.851 E19.08308
G1 X142.173 Y118.964 E19.15556
G0 F2625 X142.42 Y119.002
G0 X142.327 Y119.595
G0 X142.074 Y119.951
;TYPE:SKIN
G1 F900 X144.149 Y120.276 E19.22552
G1 X146.19 Y120.816 E19.29585
G1 X148.164 Y121.57 E19.36624
G1 X150.044 Y122.523 E19.43645
G1 X151.864 Y123.701 E19.50866
G1 X153.465 Y124.999 E19.57732
G1 X155.001 Y126.535 E19.64967
G1 X156.301 Y128.139 E19.71845
G1 X157.452 Y129.911 E19.78883
G1 X158.421 Y131.815 E19.86
G1 X159.17 Y133.765 E19.92958
G1 X159.717 Y135.809 E20.00006
G1 X160.049 Y137.89 E20.07026
G1 X160.157 Y140 E20.14063
G1 X160.049 Y142.11 E20.21101
G1 X159.717 Y144.191 E20.28121
G1 X159.17 Y146.235 E20.35169
G1 X158.421 Y148.185 E20.42127
G1 X157.452 Y150.089 E20.49243
G1 X156.301 Y151.861 E20.56282
G1 X155.001 Y153.465 E20.63159
G1 X153.465 Y155.001 E20.70395
G1 X151.861 Y156.301 E20.77273
G1 X150.089 Y157.452 E20.84311
G1 X148.185 Y158.421 E20.91428
G1 X146.235 Y159.17 E20.98386
G1 X144.191 Y159.717 E21.05434
G1 X142.11 Y160.049 E21.12454
G1 X140 Y160.157 E21.19491
G1 X137.89 Y160.049 E21.26529
G1 X135.809 Y159.717 E21.33548
G1 X133.765 Y159.17 E21.40597
G1 X131.815 Y158.421 E21.47555
G1 X129.911 Y157.452 E21.54671
G1 X128.139 Y156.301 E21.6171
G1 X126.535 Y155.001 E21.68587
G1 X124.999 Y153.465 E21.75823
G1 X123.699 Y151.861 E21.827
G1 X122.548 Y150.089 E21.89739
G1 X121.579 Y148.185 E21.96855
G1 X120.83 Y146.235 E22.03814
G1 X120.283 Y144.191 E22.10862
G1 X119.951 Y142.11 E22.17881
G1 X119.843 Y140 E22.24919
G1 X119.951 Y137.89 E22.31957
G1 X120.283 Y135.809 E22.38976
G1 X120.83 Y133.765 E22.46024
G1 X121.579 Y131.815 E22.52983
G1 X122.548 Y129.911 E22.60099
