;Generated by Cura LulzBot Edition GCodeWriter Version: 3.6.27
;FLAVOR:Marlin
;TIME:3574
;Filament used: 2.00345m
;Layer height: 0.25
;Generated with Cura_SteamEngine 3.6.27-4
M82 ;absolute extrusion mode
;This G-Code has been generated specifically for the LulzBot TAZ 6 with standard extruder
M73 P0 ; clear GLCD progress bar
M75 ; start GLCD timer
G26 ; clear potential 'probe fail' condition
M107 ; disable fans
M420 S0 ; disable previous leveling matrix
G90 ; absolute positioning
M82 ; set extruder to absolute mode
G92 E0 ; set extruder position to 0
M140 S60.0 ; start bed heating up
M109 R140 ; soften filament before homing Z
G28 ; Home all axis
G1 E-30 F100 ; retract filament
M109 R140 ; wait for extruder to reach wiping temp
G1 X-17 Y100 F3000 ; move above wiper pad
G1 Z1 ; push nozzle into wiper
G1 X-19 Y95 F1000 ; slow wipe
G1 X-19 Y90 F1000 ; slow wipe
G1 X-19 Y85 F1000 ; slow wipe
G1 X-17 Y90 F1000 ; slow wipe
G1 X-19 Y80 F1000 ; slow wipe
G1 X-17 Y95 F1000 ; slow wipe
G1 X-17 Y75 F2000 ; fast wipe
G1 X-17 Y65 F2000 ; fast wipe
G1 X-19 Y70 F2000 ; fast wipe
G1 X-17 Y60 F2000 ; fast wipe
G1 X-19 Y55 F2000 ; fast wipe
G1 X-17 Y50 F2000 ; fast wipe
G1 X-19 Y40 F2000 ; fast wipe
G1 X-17 Y45 F2000 ; fast wipe
G1 X-19 Y35 F2000 ; fast wipe
G1 X-17 Y40 F2000 ; fast wipe
G1 X-19 Y70 F2000 ; fast wipe
G1 X-17 Y30 Z2 F2000 ; fast wipe
G1 X-19 Y35 F2000 ; fast wipe
G1 X-17 Y25 F2000 ; fast wipe
G1 X-19 Y30 F2000 ; fast wipe
G1 X-17 Y25 Z1.5 F1000 ; slow wipe
G1 X-19 Y23 F1000 ; slow wipe
G1 Z10 ; raise extruder
M109 R140 ; wait for extruder to reach probe temp
G1 X-10 Y293 F4000 ; move above first probe point
M204 S100 ; set probing acceleration
G29 ; start auto-leveling sequence
M420 S1 ; activate bed level matrix
M425 Z			     ; use measured Z backlash for compensation
M425 Z F0		     ; turn off measured Z backlash compensation. (if activated in the quality settings, this command will automatically be ignored)
M204 S500 ; restore standard acceleration
G1 X0 Y0 Z15 F5000 ; move up off last probe point
G4 S1 ; pause
M400 ; wait for moves to finish
M117 Heating... ; progress indicator message on LCD
M109 R200 ; wait for extruder to reach printing temp
M190 R60.0 ; wait for bed to reach printing temp
G1 Z2 E0 F75 ; prime tiny bit of filament into the nozzle
M117 TAZ 6 Printing... ; progress indicator message on LCD

M221 S100 T0
G92 E0
G1 F600 E-1
;LAYER_COUNT:82
;LAYER:0
M107
;MESH:
G0 F2625 X168.457 Y136.425 Z0.425
;TYPE:WALL-INNER
G1 F600 E0
G1 F900 X168.457 Y152.925 E0.54962
G1 X170.948 Y152.925 E0.6326
G1 X170.949 Y152.925 E0.63263
G1 X171.294 Y152.925 E0.64412
G1 X171.186 Y153.253 E0.65097
G1 X170.71 Y154.688 E0.70133
G1 X169.533 Y157.304 E0.79688
G1 X168.1 Y159.769 E0.89186
G1 X166.412 Y162.085 E0.98732
G1 X164.498 Y164.208 E1.08254
G1 X162.375 Y166.122 E1.17775
G1 X160.06 Y167.81 E1.27319
G1 X157.595 Y169.243 E1.36816
G1 X154.979 Y170.419 E1.4637
G1 X153.543 Y170.895 E1.5141
G1 X153.215 Y171.003 E1.5256
G1 X153.215 Y170.658 E1.53244
G1 X153.215 Y170.657 E1.53247
G1 X153.215 Y168.166 E1.61545
G1 X136.715 Y168.166 E2.16507
G1 X136.715 Y170.657 E2.24804
G1 X136.715 Y170.658 E2.24808
G1 X136.715 Y171.003 E2.25957
G1 X136.387 Y170.895 E2.26641
G1 X134.952 Y170.419 E2.31677
G1 X132.336 Y169.243 E2.41231
G1 X129.871 Y167.81 E2.50729
G1 X127.555 Y166.122 E2.60275
G1 X125.432 Y164.208 E2.69797
G1 X123.518 Y162.085 E2.79318
G1 X121.83 Y159.769 E2.88865
G1 X120.397 Y157.304 E2.98362
G1 X119.222 Y154.691 E3.07906
G1 X118.745 Y153.253 E3.12952
G1 X118.637 Y152.925 E3.14103
G1 X118.982 Y152.925 E3.14786
G1 X118.983 Y152.925 E3.1479
G1 X121.474 Y152.925 E3.23087
G1 X121.474 Y136.425 E3.78049
G1 X118.983 Y136.425 E3.86347
G1 X118.982 Y136.425 E3.8635
G1 X118.637 Y136.425 E3.875
G1 X118.745 Y136.097 E3.88184
G1 X119.222 Y134.658 E3.93234
G1 X120.397 Y132.045 E4.02777
G1 X121.83 Y129.58 E4.12275
G1 X123.518 Y127.265 E4.21819
G1 X125.432 Y125.141 E4.31342
G1 X127.559 Y123.223 E4.40883
G1 X129.866 Y121.543 E4.50389
G1 X132.336 Y120.106 E4.59908
G1 X134.952 Y118.93 E4.69462
G1 X136.387 Y118.454 E4.74498
G1 X136.715 Y118.346 E4.75648
G1 X136.715 Y118.691 E4.76332
G1 X136.715 Y118.692 E4.76335
G1 X136.715 Y121.183 E4.84633
G1 X153.215 Y121.183 E5.39595
G1 X153.215 Y118.692 E5.47893
G1 X153.215 Y118.691 E5.47896
G1 X153.215 Y118.346 E5.49045
G1 X153.543 Y118.454 E5.4973
G1 X154.979 Y118.93 E5.54769
G1 X157.595 Y120.106 E5.64323
G1 X160.065 Y121.543 E5.73842
G1 X162.371 Y123.223 E5.83345
G1 X164.498 Y125.141 E5.92886
G1 X166.412 Y127.265 E6.0241
G1 X168.1 Y129.58 E6.11953
G1 X169.533 Y132.045 E6.21451
G1 X170.71 Y134.661 E6.31006
G1 X171.186 Y136.097 E6.36046
G1 X171.294 Y136.425 E6.37196
G1 X170.949 Y136.425 E6.3788
G1 X170.948 Y136.425 E6.37883
G1 X168.457 Y136.425 E6.4618
G0 F2625 X168.957 Y136.925
;TYPE:WALL-OUTER
G1 F900 X168.957 Y152.425 E6.97812
G1 X171.64 Y152.425 E7.06749
G1 X171.641 Y152.425 E7.06752
G1 X171.986 Y152.425 E7.07901
G1 X171.878 Y152.753 E7.08586
G1 X171.178 Y154.867 E7.16003
G1 X169.98 Y157.53 E7.2573
G1 X168.516 Y160.048 E7.35432
G1 X166.803 Y162.398 E7.45119
G1 X164.852 Y164.562 E7.54825
G1 X162.688 Y166.513 E7.6453
G1 X160.339 Y168.226 E7.74214
G1 X157.821 Y169.69 E7.83917
G1 X155.158 Y170.887 E7.93642
G1 X153.043 Y171.587 E8.01063
G1 X152.715 Y171.695 E8.02213
G1 X152.715 Y171.35 E8.02897
G1 X152.715 Y171.349 E8.029
G1 X152.715 Y168.666 E8.11837
G1 X137.215 Y168.666 E8.63469
G1 X137.215 Y171.349 E8.72406
G1 X137.215 Y171.35 E8.72409
G1 X137.215 Y171.695 E8.73558
G1 X136.887 Y171.587 E8.74243
G1 X134.773 Y170.887 E8.8166
G1 X132.11 Y169.69 E8.91386
G1 X129.592 Y168.226 E9.01088
G1 X127.242 Y166.513 E9.10775
G1 X125.078 Y164.562 E9.2048
G1 X123.127 Y162.398 E9.30186
G1 X121.414 Y160.048 E9.39873
G1 X119.95 Y157.53 E9.49575
G1 X118.754 Y154.87 E9.5929
G1 X118.053 Y152.753 E9.66718
G1 X117.945 Y152.425 E9.67869
G1 X118.29 Y152.425 E9.68552
G1 X118.291 Y152.425 E9.68556
G1 X120.974 Y152.425 E9.77493
G1 X120.974 Y136.925 E10.29124
G1 X118.291 Y136.925 E10.38061
G1 X118.29 Y136.925 E10.38064
G1 X117.945 Y136.925 E10.39214
G1 X118.053 Y136.597 E10.39898
G1 X118.754 Y134.479 E10.47329
G1 X119.95 Y131.819 E10.57044
G1 X121.414 Y129.301 E10.66747
G1 X123.127 Y126.952 E10.76431
G1 X125.078 Y124.787 E10.86139
G1 X127.242 Y122.836 E10.95844
G1 X129.592 Y121.124 E11.05529
G1 X132.11 Y119.659 E11.15233
G1 X134.773 Y118.462 E11.24958
G1 X136.887 Y117.762 E11.32376
G1 X137.215 Y117.654 E11.33526
G1 X137.215 Y117.999 E11.3421
G1 X137.215 Y118 E11.34213
G1 X137.215 Y120.683 E11.43151
G1 X152.715 Y120.683 E11.94782
G1 X152.715 Y118 E12.03719
G1 X152.715 Y117.999 E12.03722
G1 X152.715 Y117.654 E12.04871
G1 X153.043 Y117.762 E12.05556
G1 X155.158 Y118.462 E12.12977
G1 X157.821 Y119.659 E12.22702
G1 X160.339 Y121.124 E12.32406
G1 X162.688 Y122.836 E12.42088
G1 X164.852 Y124.787 E12.51794
G1 X166.803 Y126.952 E12.61502
G1 X168.516 Y129.301 E12.71186
G1 X169.98 Y131.819 E12.80888
G1 X171.178 Y134.482 E12.90615
G1 X171.878 Y136.597 E12.98036
G1 X171.986 Y136.925 E12.99186
G1 X171.641 Y136.925 E12.9987
G1 X171.64 Y136.925 E12.99873
G1 X168.957 Y136.925 E13.0881
G0 F2625 X168.957 Y137.175
G0 X168.357 Y137.175
G0 X167.967 Y135.935
;TYPE:SKIN
G1 F900 X167.967 Y153.415 E13.67037
G1 X170.616 Y153.415 E13.75861
G1 X170.254 Y154.508 E13.79696
G1 X169.096 Y157.083 E13.89101
G1 X167.688 Y159.502 E13.98424
G1 X166.034 Y161.773 E14.07783
G1 X164.151 Y163.861 E14.17148
G1 X162.063 Y165.744 E14.26514
G1 X159.793 Y167.398 E14.3587
G1 X157.374 Y168.806 E14.45193
G1 X154.799 Y169.963 E14.54597
G1 X153.705 Y170.325 E14.58435
G1 X153.705 Y167.676 E14.67259
G1 X136.225 Y167.676 E15.25486
G1 X136.225 Y170.325 E15.3431
G1 X135.132 Y169.963 E15.38145
G1 X132.557 Y168.806 E15.47548
G1 X130.138 Y167.398 E15.56872
G1 X127.867 Y165.744 E15.6623
G1 X125.779 Y163.861 E15.75596
G1 X123.896 Y161.773 E15.84962
G1 X122.242 Y159.502 E15.9432
G1 X120.834 Y157.083 E16.03644
G1 X119.678 Y154.511 E16.13037
G1 X119.315 Y153.415 E16.16882
G1 X121.964 Y153.415 E16.25706
G1 X121.964 Y135.935 E16.83933
G1 X119.315 Y135.935 E16.92757
G1 X119.678 Y134.838 E16.96606
G1 X120.834 Y132.266 E17.05999
G1 X122.242 Y129.847 E17.15322
G1 X123.896 Y127.577 E17.24678
G1 X125.779 Y125.488 E17.34046
G1 X127.871 Y123.601 E17.43431
G1 X130.133 Y121.955 E17.52749
G1 X132.557 Y120.543 E17.62094
G1 X135.132 Y119.386 E17.71497
G1 X136.225 Y119.024 E17.75332
G1 X136.225 Y121.673 E17.84156
G1 X153.705 Y121.673 E18.42383
G1 X153.705 Y119.024 E18.51207
G1 X154.799 Y119.386 E18.55045
G1 X157.374 Y120.543 E18.64449
G1 X159.798 Y121.955 E18.73793
G1 X162.059 Y123.601 E18.83109
G1 X164.151 Y125.488 E18.92494
G1 X166.034 Y127.577 E19.01862
G1 X167.688 Y129.847 E19.11218
G1 X169.096 Y132.266 E19.20541
G1 X170.254 Y134.841 E19.29946
G1 X170.616 Y135.935 E19.33784
G1 X167.967 Y135.935 E19.42608
G0 F2625 X165.46 Y127.277
G1 F900 X162.359 Y124.175 E19.57219
G1 X162.271 Y124.087
G0 F2625 X159.545 Y122.068
G1 F900 X167.57 Y130.094 E19.95025
G1 X167.658 Y130.182
G0 F2625 X168.555 Y131.786
G1 F900 X157.853 Y121.083 E20.45442
G1 X157.765 Y120.995
G0 F2625 X156.426 Y120.364
G1 F900 X169.273 Y133.211 E21.05962
G1 X169.361 Y133.299
G0 F2625 X169.85 Y134.495
G1 F900 X155.142 Y119.786 E21.75251
G1 X155.054 Y119.698
G0 F2625 X154.009 Y119.361
G1 F900 X170.278 Y135.63 E22.51891
G0 F2625 X169.65 Y135.709
G1 F900 X153.929 Y119.988 E23.25949
G0 F2625 X153.929 Y120.695
G1 F900 X168.943 Y135.709 E23.96677
G0 F2625 X168.236 Y135.709
G1 F900 X153.929 Y121.402 E24.64074
G0 F2625 X153.717 Y121.898
G1 F900 X167.741 Y135.921 E25.30136
G0 F2625 X167.741 Y136.628
G1 F900 X153.01 Y121.898 E25.99529
G0 F2625 X152.303 Y121.898
G1 F900 X167.741 Y137.335 E26.72252
G0 F2625 X167.741 Y138.042
G1 F900 X151.596 Y121.898 E27.48305
G0 F2625 X150.889 Y121.898
G1 F900 X167.741 Y138.749 E28.27689
G0 F2625 X167.741 Y139.457
G1 F900 X150.182 Y121.898 E29.10406
G0 F2625 X149.475 Y121.898
G1 F900 X167.741 Y140.164 E29.96453
G0 F2625 X167.741 Y140.871
G1 F900 X148.768 Y121.898 E30.85831
G0 F2625 X148.061 Y121.898
G1 F900 X167.741 Y141.578 E31.7854
G0 F2625 X167.741 Y142.285
G1 F900 X147.353 Y121.898 E32.74581
G0 F2625 X146.646 Y121.898
G1 F900 X167.741 Y142.992 E33.73953
G0 F2625 X167.741 Y143.699
G1 F900 X145.939 Y121.898 E34.76655
G0 F2625 X145.232 Y121.898
G1 F900 X167.741 Y144.406 E35.82688
G0 F2625 X167.741 Y145.113
G1 F900 X144.525 Y121.898 E36.92052
G0 F2625 X143.818 Y121.898
G1 F900 X167.741 Y145.82 E38.04746
G0 F2625 X167.741 Y146.528
G1 F900 X143.111 Y121.898 E39.20773
G0 F2625 X142.404 Y121.898
G1 F900 X167.741 Y147.235 E40.4013
G0 F2625 X167.741 Y147.942
G1 F900 X141.697 Y121.898 E41.62818
G0 F2625 X140.99 Y121.898
G1 F900 X167.741 Y148.649 E42.88837
G0 F2625 X167.741 Y149.356
G1 F900 X140.282 Y121.898 E44.18188
G0 F2625 X139.575 Y121.898
G1 F900 X167.741 Y150.063 E45.5087
G0 F2625 X167.741 Y150.77
G1 F900 X138.868 Y121.898 E46.86883
G0 F2625 X138.161 Y121.898
G1 F900 X167.741 Y151.477 E48.26226
G0 F2625 X167.741 Y152.184
G1 F900 X137.454 Y121.898 E49.68899
G0 F2625 X136.747 Y121.898
G1 F900 X167.741 Y152.892 E51.14906
G0 F2625 X167.741 Y153.599
G1 F900 X136.04 Y121.898 E52.64242
G0 F2625 X135.999 Y121.857
G1 F900 X134.196 Y120.054 E52.72736
G0 F2625 X134.684 Y119.834
G1 F900 X135.999 Y121.15 E52.78933
G0 F2625 X135.999 Y120.442
G1 F900 X135.171 Y119.615 E52.82831
G0 F2625 X135.698 Y119.435
G1 F900 X135.999 Y119.735 E52.84247
G0 F2625 X133.708 Y120.273
G1 F900 X169.366 Y155.931 E54.52224
G0 F2625 X169.586 Y155.443
G1 F900 X167.782 Y153.64 E54.6072
G0 F2625 X168.489 Y153.64
G1 F900 X169.805 Y154.956 E54.6692
G0 F2625 X170.024 Y154.468
G1 F900 X169.196 Y153.64 E54.7082
G0 F2625 X169.903 Y153.64
G1 F900 X170.204 Y153.941 E54.72238
G0 F2625 X169.147 Y156.419
G1 F900 X133.219 Y120.491 E56.41488
G0 F2625 X132.731 Y120.71
G1 F900 X168.928 Y156.907 E58.12004
G0 F2625 X168.673 Y157.36
G1 F900 X132.279 Y120.965 E59.83452
G0 F2625 X131.832 Y121.226
G1 F900 X168.413 Y157.807 E61.55777
G0 F2625 X168.154 Y158.254
G1 F900 X131.386 Y121.486 E63.28984
G0 F2625 X130.939 Y121.746
G1 F900 X167.894 Y158.701 E65.03071
G0 F2625 X167.633 Y159.148
G1 F900 X130.492 Y122.007 E66.78035
G0 F2625 X130.063 Y122.284
G1 F900 X167.355 Y159.577 E68.53712
G0 F2625 X167.057 Y159.986
G1 F900 X129.653 Y122.582 E70.29915
G0 F2625 X129.244 Y122.88
G1 F900 X166.759 Y160.395 E72.0664
G0 F2625 X166.461 Y160.804
G1 F900 X128.834 Y123.178 E73.83891
G0 F2625 X128.425 Y123.475
G1 F900 X166.163 Y161.213 E75.61667
G0 F2625 X165.865 Y161.622
G1 F900 X128.016 Y123.773 E77.39966
G0 F2625 X127.644 Y124.108
G1 F900 X165.53 Y161.995 E79.18442
G0 F2625 X165.195 Y162.367
G1 F900 X127.272 Y124.443 E80.97092
G0 F2625 X126.9 Y124.778
G1 F900 X164.86 Y162.739 E82.75916
G0 F2625 X164.524 Y163.11
G1 F900 X126.528 Y125.114 E84.54907
G0 F2625 X126.157 Y125.449
G1 F900 X164.189 Y163.482 E86.34071
G0 F2625 X163.838 Y163.838
G1 F900 X125.799 Y125.799 E88.13265
G0 F2625 X125.464 Y126.171
G1 F900 X163.466 Y164.173 E89.92284
G0 F2625 X163.094 Y164.509
G1 F900 X125.128 Y126.543 E91.71134
G0 F2625 X124.793 Y126.915
G1 F900 X162.722 Y164.844 E93.4981
G0 F2625 X162.351 Y165.179
G1 F900 X124.458 Y127.286 E95.28316
G0 F2625 X124.123 Y127.658
G1 F900 X161.979 Y165.515 E97.06651
G0 F2625 X161.576 Y165.819
G1 F900 X123.819 Y128.061 E98.84519
G0 F2625 X123.521 Y128.471
G1 F900 X161.167 Y166.117 E100.61861
G0 F2625 X160.758 Y166.415
G1 F900 X123.223 Y128.88 E102.38681
G0 F2625 X122.925 Y129.289
G1 F900 X160.349 Y166.713 E104.14978
G0 F2625 X159.94 Y167.011
G1 F900 X122.627 Y129.698 E105.90752
G0 F2625 X122.342 Y130.12
G1 F900 X159.518 Y167.296 E107.6588
G0 F2625 X159.071 Y167.556
G1 F900 X122.081 Y130.567 E109.4013
G0 F2625 X121.821 Y131.014
G1 F900 X158.624 Y167.816 E111.13499
G0 F2625 X158.176 Y168.076
G1 F900 X121.562 Y131.461 E112.85983
G0 F2625 X121.302 Y131.908
G1 F900 X157.73 Y168.336 E114.57588
G0 F2625 X157.283 Y168.596
G1 F900 X121.041 Y132.355 E116.28314
G0 F2625 X120.821 Y132.842
G1 F900 X156.796 Y168.817 E117.97785
G0 F2625 X156.308 Y169.036
G1 F900 X120.602 Y133.329 E119.65991
G0 F2625 X120.382 Y133.817
G1 F900 X155.82 Y169.255 E121.32932
G0 F2625 X155.332 Y169.475
G1 F900 X153.929 Y168.071 E121.39544
G0 F2625 X153.929 Y168.778
G1 F900 X154.845 Y169.694 E121.43859
G0 F2625 X154.325 Y169.881
G1 F900 X153.929 Y169.485 E121.45724
G0 F2625 X153.307 Y167.449
G1 F900 X122.188 Y136.33 E122.9232
G0 F2625 X122.188 Y137.038
G1 F900 X152.6 Y167.449 E124.35582
G0 F2625 X151.893 Y167.449
G1 F900 X122.188 Y137.745 E125.75514
G0 F2625 X122.188 Y138.452
G1 F900 X151.186 Y167.449 E127.12115
G0 F2625 X150.479 Y167.449
G1 F900 X122.188 Y139.159 E128.45386
G0 F2625 X122.188 Y139.866
G1 F900 X149.772 Y167.449 E129.75326
G0 F2625 X149.065 Y167.449
G1 F900 X122.188 Y140.573 E131.01936
G0 F2625 X122.188 Y141.28
G1 F900 X148.358 Y167.449 E132.25215
G0 F2625 X147.65 Y167.449
G1 F900 X122.188 Y141.987 E133.45161
G0 F2625 X122.188 Y142.694
G1 F900 X146.943 Y167.449 E134.61777
G0 F2625 X146.236 Y167.449
G1 F900 X122.188 Y143.401 E135.75062
G0 F2625 X122.188 Y144.109
G1 F900 X145.529 Y167.449 E136.85015
G0 F2625 X144.822 Y167.449
G1 F900 X122.188 Y144.816 E137.91637
G0 F2625 X122.188 Y145.523
G1 F900 X144.115 Y167.449 E138.94928
G0 F2625 X143.408 Y167.449
G1 F900 X122.188 Y146.23 E139.94889
G0 F2625 X122.188 Y146.937
G1 F900 X142.701 Y167.449 E140.91519
G0 F2625 X141.994 Y167.449
G1 F900 X122.188 Y147.644 E141.84818
G0 F2625 X122.188 Y148.351
G1 F900 X141.287 Y167.449 E142.74788
G0 F2625 X140.579 Y167.449
G1 F900 X122.188 Y149.058 E143.61424
G0 F2625 X122.188 Y149.765
G1 F900 X139.872 Y167.449 E144.4473
G0 F2625 X139.165 Y167.449
G1 F900 X122.188 Y150.473 E145.24702
G0 F2625 X122.188 Y151.18
G1 F900 X138.458 Y167.449 E146.01345
G0 F2625 X137.751 Y167.449
G1 F900 X122.188 Y151.887 E146.74656
G0 F2625 X122.188 Y152.594
G1 F900 X137.044 Y167.449 E147.44638
G0 F2625 X136.337 Y167.449
G1 F900 X122.188 Y153.301 E148.11288
G0 F2625 X121.819 Y153.639
G1 F900 X135.999 Y167.819 E148.78088
G0 F2625 X135.999 Y168.526
G1 F900 X121.112 Y153.639 E149.48217
G0 F2625 X120.405 Y153.639
G1 F900 X135.999 Y169.233 E150.21677
